X:545
%%etbk:tnset id:281,pos:1,rep:3x,ant:
%%etbk:pldat 2016-08-18T19:27,2016-08-17T16:41,2016-08-16T16:52,2016-08-15T18:18,2015-02-22T12:48,2015-02-19T19:34,2015-01-14T16:00,2015-01-12T18:53,2015-01-10T15:47,2015-01-08T18:01,2015-01-07T16:30,2015-01-05T19:09,2014-10-16T18:15,2014-04-12T11:37,2014-04-09T15:31,2014-04-06T11:15,2014-04-03T19:16,2014-03-22T15:59,2014-03-04T19:09,2014-02-23T10:03,2014-02-20T19:02,2014-01-30T18:14,2014-01-29T16:21,2014-01-28T17:54,2014-01-26T15:22,2014-01-21T18:02,2014-01-18T16:10,2014-01-12T14:21,2014-01-09T18:47,2014-01-06T18:25,2014-01-03T16:06,2013-12-28T13:36,2013-12-27T16:03,2013-12-26T13:53,2013-12-22T16:50,2013-12-21T16:31,2013-12-18T16:27,2013-12-17T16:08,2013-12-16T18:01,2013-12-15T14:00,2013-12-10T18:25,2013-12-05T20:32,2013-12-04T17:00
T: Wild Asparagus
T: Far Away
Z: Piano Box Version by Martin Fleischmann
H: Created 2013-12-01 /  Last Modified 2013-12-04
R: waltz
M: 3/4
L: 1/8
K: Bmin
!1!F!2!A |: "bm"!3!B2 {c}BA B!5!d | "A"!4!c!2!A !1!E2!1!FA | "bm"!3!B2 BA !3!(3Bc!5!d | "A"!4!c3  !5!e!4!d!3!c |
"bm"!2!B2 {c}!3!BA Bd | "A"!3!cB !1!A2 !3!de | "bm"!5!fe dc !1!B!2!A |1 !3!B3A FA :|2 !1!B3!2!c !2!d!3!e ||
|: "D"!4!f2 {g}fe f!5!a | "A"!3!e!2!c !1!A2 !2!d!3!e | "D"!4!f2 {g}fe fa | "A"!3!e4 !2!d!3!e |
"bm"!4!f!2!d !1!B"A"!4!e !2!c!1!A | "G"!4!d!2!B !1!G!4!d !2!B!1!G| "bm"!1!F2 !3!B2 !3!BA|1 !1!B3c d!3!e :|2 !3!B2 BA FA ||


